static/assets/template/assets/img/icons/essential/detailed/Apps.svg

<svg height="113" viewBox="0 0 145 113" width="145" xmlns="http://www.w3.org/2000/svg"><g fill="none" fill-rule="evenodd" transform="translate(2 1)"><path d="m31 .5h-18c-7 0-12.6 5.7-12.6 12.6v18c0 7 5.7 12.6 12.6 12.6h18c7 0 12.6-5.7 12.6-12.6v-18c0-7-5.7-12.6-12.6-12.6z" fill-rule="nonzero"/><path d="m31 5.1h-13.4c-7 0-12.6 5.7-12.6 12.6v13.4c0 7 5.7 12.6 12.6 12.6h13.4c7 0 12.6-5.7 12.6-12.6v-13.4c0-6.9-5.7-12.6-12.6-12.6z" fill-rule="nonzero"/><path d="m31 .5h-18c-7 0-12.6 5.7-12.6 12.6v18c0 7 5.7 12.6 12.6 12.6h18c7 0 12.6-5.7 12.6-12.6v-18c0-7-5.7-12.6-12.6-12.6z" stroke-linecap="round" stroke-linejoin="round" stroke-width="3"/><path d="m31 56.2h-18c-7 0-12.6 5.7-12.6 12.6v18c0 7 5.7 12.6 12.6 12.6h18c7 0 12.6-5.7 12.6-12.6v-18c0-7-5.7-12.6-12.6-12.6z" fill-rule="nonzero"/><path d="m31 60.8h-13.4c-7 0-12.6 5.7-12.6 12.6v13.4c0 7 5.7 12.6 12.6 12.6h13.4c7 0 12.6-5.7 12.6-12.6v-13.4c0-6.9-5.7-12.6-12.6-12.6z" fill-rule="nonzero"/><path d="m31 56.2h-18c-7 0-12.6 5.7-12.6 12.6v18c0 7 5.7 12.6 12.6 12.6h18c7 0 12.6-5.7 12.6-12.6v-18c0-7-5.7-12.6-12.6-12.6z" stroke-linecap="round" stroke-linejoin="round" stroke-width="3"/><path d="m86.7.5h-18c-7 0-12.6 5.7-12.6 12.6v18c0 7 5.7 12.6 12.6 12.6h18c7 0 12.6-5.7 12.6-12.6v-18c0-7-5.7-12.6-12.6-12.6z" fill-rule="nonzero"/><path d="m86.7.5h-18c-7 0-12.6 5.7-12.6 12.6v18c0 7 5.7 12.6 12.6 12.6h18c7 0 12.6-5.7 12.6-12.6v-18c0-7-5.7-12.6-12.6-12.6z" stroke-linecap="round" stroke-linejoin="round" stroke-width="3"/><path d="m86.7 56.2h-18c-7 0-12.6 5.7-12.6 12.6v18c0 7 5.7 12.6 12.6 12.6h18c7 0 12.6-5.7 12.6-12.6v-18c0-7-5.7-12.6-12.6-12.6z" fill-rule="nonzero"/><path d="m86.7 60.8h-13.4c-7 0-12.6 5.7-12.6 12.6v13.4c0 7 5.7 12.6 12.6 12.6h13.4c7 0 12.6-5.7 12.6-12.6v-13.4c0-6.9-5.7-12.6-12.6-12.6z" fill-rule="nonzero"/><path d="m86.7 56.2h-18c-7 0-12.6 5.7-12.6 12.6v18c0 7 5.7 12.6 12.6 12.6h18c7 0 12.6-5.7 12.6-12.6v-18c0-7-5.7-12.6-12.6-12.6z" stroke-linecap="round" stroke-linejoin="round" stroke-width="3"/><g transform="translate(68 18)"><g fill-rule="nonzero"><path d="m73 36.8c0-3.3-2.7-6-6-6-3 0-5.4 2.2-5.9 5h-2.7v-4.6c0-3.3-2.7-6-6-6s-6 2.7-6 6v4.5h-2.5v-9.3c0-3.6-2.9-6.5-6.5-6.5s-6.5 2.9-6.5 6.5v9.2h-2.2v-27.4c0-3.6-2.9-6.5-6.5-6.5s-6.5 2.9-6.5 6.5v39.5 3.2 13.6h-2.3v-9.6c0-7.1-5.8-12.9-12.9-12.9v23.7c0 1.4.4 2.6 1.2 3.7v.1c2.4 3.8 15.8 15.2 21.9 20.4 2 1.7 4.6 2.6 7.2 2.6h26.3c8.7 0 15.8-7.1 15.8-15.8v-39.9z"/><path d="m73 36v39.8c0 8.7-7.1 15.8-15.8 15.8h-26.2c-2.6 0-5.2-.9-7.2-2.6-6.2-5.2-19.5-16.7-21.9-20.4v-.1c-.7-1.1-1.2-2.3-1.2-3.7v-23.8c7.1 0 12.9 5.8 12.9 12.9v9.6h2.3v-56.3c0-3.6 2.9-6.5 6.5-6.5s6.5 2.9 6.5 6.5v27.4h2.2v-9.2c0-3.6 2.9-6.5 6.5-6.5s6.5 2.9 6.5 6.5v9.3h2.5v-4.5c0-3.3 2.7-6 6-6s6 2.7 6 6v4.6h2.7c.5-2.8 2.9-5 5.9-5 3.1.2 5.8 2.9 5.8 6.2z"/><path d="m73 40.6v35.1c0 8.7-7.1 15.8-15.8 15.8h-26.2c-2.6 0-5.2-.9-7.2-2.6-6.2-5.2-19.5-16.7-21.9-20.4v-.1c-.7-1.1-1.2-2.3-1.2-3.7v-19.1c7.1 0 12.9 5.8 12.9 12.9v9.6h2.3v-56.3c0-3.6 2.9-6.5 6.5-6.5s6.5 2.9 6.5 6.5v27.4h2.2v-9.2c0-3.6 2.9-6.5 6.5-6.5s6.5 2.9 6.5 6.5v9.3h2.5v-4.6c.1-3.3 2.7-5.9 6-5.9s6 2.7 6 6v4.6h2.7c.5-2.8 2.9-5 5.9-5 3.1.2 5.8 2.9 5.8 6.2z"/></g><path d="m73 36.8c0-3.3-2.7-6-6-6-3 0-5.4 2.2-5.9 5h-2.7v-4.6c0-3.3-2.7-6-6-6s-6 2.7-6 6v4.5h-2.5v-9.3c0-3.6-2.9-6.5-6.5-6.5s-6.5 2.9-6.5 6.5v9.2h-2.2v-27.4c0-3.6-2.9-6.5-6.5-6.5s-6.5 2.9-6.5 6.5v39.5 3.2 13.6h-2.3v-9.6c0-7.1-5.8-12.9-12.9-12.9v23.7c0 1.4.4 2.6 1.2 3.7v.1c2.4 3.8 15.8 15.2 21.9 20.4 2 1.7 4.6 2.6 7.2 2.6h26.3c8.7 0 15.8-7.1 15.8-15.8v-39.9z" stroke-linecap="round" stroke-linejoin="round" stroke-width="3"/></g></g></svg>

<?xml version="1.0" encoding="UTF-8"?>
<svg width="145px" height="113px" viewBox="0 0 145 113" version="1.1" xmlns="http://www.w3.org/2000/svg" xmlns:xlink="http://www.w3.org/1999/xlink">
    <!-- Generator: Sketch 51.2 (57519) - http://www.bohemiancoding.com/sketch -->
    <title>Apps</title>
    <desc>Created with Sketch.</desc>
    <defs></defs>
    <g id="Page-1" stroke="none" stroke-width="1" fill="none" fill-rule="evenodd">
        <g id="Apps" transform="translate(2.000000, 1.000000)">
            <path d="M31,0.5 L13,0.5 C6,0.5 0.4,6.2 0.4,13.1 L0.4,31.1 C0.4,38.1 6.1,43.7 13,43.7 L31,43.7 C38,43.7 43.6,38 43.6,31.1 L43.6,13.1 C43.6,6.1 37.9,0.5 31,0.5 Z" id="Shape" class="fill-neutral" fill-rule="nonzero"></path>
            <path d="M31,5.1 L17.6,5.1 C10.6,5.1 5,10.8 5,17.7 L5,31.1 C5,38.1 10.7,43.7 17.6,43.7 L31,43.7 C38,43.7 43.6,38 43.6,31.1 L43.6,17.7 C43.6,10.8 37.9,5.1 31,5.1 Z" id="Shape" class="fill-primary-300" fill-rule="nonzero"></path>
            <path d="M31,0.5 L13,0.5 C6,0.5 0.4,6.2 0.4,13.1 L0.4,31.1 C0.4,38.1 6.1,43.7 13,43.7 L31,43.7 C38,43.7 43.6,38 43.6,31.1 L43.6,13.1 C43.6,6.1 37.9,0.5 31,0.5 Z" id="Shape" class="stroke-primary" stroke-width="3" stroke-linecap="round" stroke-linejoin="round"></path>
            <path d="M31,56.2 L13,56.2 C6,56.2 0.4,61.9 0.4,68.8 L0.4,86.8 C0.4,93.8 6.1,99.4 13,99.4 L31,99.4 C38,99.4 43.6,93.7 43.6,86.8 L43.6,68.8 C43.6,61.8 37.9,56.2 31,56.2 Z" id="Shape" class="fill-neutral" fill-rule="nonzero"></path>
            <path d="M31,60.8 L17.6,60.8 C10.6,60.8 5,66.5 5,73.4 L5,86.8 C5,93.8 10.7,99.4 17.6,99.4 L31,99.4 C38,99.4 43.6,93.7 43.6,86.8 L43.6,73.4 C43.6,66.5 37.9,60.8 31,60.8 Z" id="Shape" class="fill-primary-300" fill-rule="nonzero"></path>
            <path d="M31,56.2 L13,56.2 C6,56.2 0.4,61.9 0.4,68.8 L0.4,86.8 C0.4,93.8 6.1,99.4 13,99.4 L31,99.4 C38,99.4 43.6,93.7 43.6,86.8 L43.6,68.8 C43.6,61.8 37.9,56.2 31,56.2 Z" id="Shape" class="stroke-primary" stroke-width="3" stroke-linecap="round" stroke-linejoin="round"></path>
            <path d="M86.7,0.5 L68.7,0.5 C61.7,0.5 56.1,6.2 56.1,13.1 L56.1,31.1 C56.1,38.1 61.8,43.7 68.7,43.7 L86.7,43.7 C93.7,43.7 99.3,38 99.3,31.1 L99.3,13.1 C99.3,6.1 93.6,0.5 86.7,0.5 Z" id="Shape" class="fill-neutral" fill-rule="nonzero"></path>
            <path d="M86.7,0.5 L68.7,0.5 C61.7,0.5 56.1,6.2 56.1,13.1 L56.1,31.1 C56.1,38.1 61.8,43.7 68.7,43.7 L86.7,43.7 C93.7,43.7 99.3,38 99.3,31.1 L99.3,13.1 C99.3,6.1 93.6,0.5 86.7,0.5 Z" id="Shape" class="stroke-primary" stroke-width="3" stroke-linecap="round" stroke-linejoin="round"></path>
            <path d="M86.7,56.2 L68.7,56.2 C61.7,56.2 56.1,61.9 56.1,68.8 L56.1,86.8 C56.1,93.8 61.8,99.4 68.7,99.4 L86.7,99.4 C93.7,99.4 99.3,93.7 99.3,86.8 L99.3,68.8 C99.3,61.8 93.6,56.2 86.7,56.2 Z" id="Shape" class="fill-neutral" fill-rule="nonzero"></path>
            <path d="M86.7,60.8 L73.3,60.8 C66.3,60.8 60.7,66.5 60.7,73.4 L60.7,86.8 C60.7,93.8 66.4,99.4 73.3,99.4 L86.7,99.4 C93.7,99.4 99.3,93.7 99.3,86.8 L99.3,73.4 C99.3,66.5 93.6,60.8 86.7,60.8 Z" id="Shape" class="fill-primary-300" fill-rule="nonzero"></path>
            <path d="M86.7,56.2 L68.7,56.2 C61.7,56.2 56.1,61.9 56.1,68.8 L56.1,86.8 C56.1,93.8 61.8,99.4 68.7,99.4 L86.7,99.4 C93.7,99.4 99.3,93.7 99.3,86.8 L99.3,68.8 C99.3,61.8 93.6,56.2 86.7,56.2 Z" id="Shape" class="stroke-primary" stroke-width="3" stroke-linecap="round" stroke-linejoin="round"></path>
            <g id="Group" transform="translate(68.000000, 18.000000)">
                <path d="M73,36.8 C73,33.5 70.3,30.8 67,30.8 C64,30.8 61.6,33 61.1,35.8 L58.4,35.8 L58.4,31.2 C58.4,27.9 55.7,25.2 52.4,25.2 C49.1,25.2 46.4,27.9 46.4,31.2 L46.4,35.7 L43.9,35.7 L43.9,26.4 C43.9,22.8 41,19.9 37.4,19.9 C33.8,19.9 30.9,22.8 30.9,26.4 L30.9,35.6 L28.7,35.6 L28.7,8.2 C28.7,4.6 25.8,1.7 22.2,1.7 C18.6,1.7 15.7,4.6 15.7,8.2 L15.7,47.7 L15.7,50.9 L15.7,64.5 L13.4,64.5 L13.4,54.9 C13.4,47.8 7.6,42 0.5,42 L0.5,65.7 C0.5,67.1 0.9,68.3 1.7,69.4 C1.7,69.4 1.7,69.5 1.7,69.5 C4.1,73.3 17.5,84.7 23.6,89.9 C25.6,91.6 28.2,92.5 30.8,92.5 L57.1,92.5 C65.8,92.5 72.9,85.4 72.9,76.7 L72.9,36.8 L73,36.8 Z" id="Shape" class="fill-neutral" fill-rule="nonzero"></path>
                <path d="M73,36 L73,75.8 C73,84.5 65.9,91.6 57.2,91.6 L31,91.6 C28.4,91.6 25.8,90.7 23.8,89 C17.6,83.8 4.3,72.3 1.9,68.6 C1.9,68.6 1.9,68.5 1.9,68.5 C1.2,67.4 0.7,66.2 0.7,64.8 L0.7,41 C7.8,41 13.6,46.8 13.6,53.9 L13.6,63.5 L15.9,63.5 L15.9,7.2 C15.9,3.6 18.8,0.7 22.4,0.7 C26,0.7 28.9,3.6 28.9,7.2 L28.9,34.6 L31.1,34.6 L31.1,25.4 C31.1,21.8 34,18.9 37.6,18.9 C41.2,18.9 44.1,21.8 44.1,25.4 L44.1,34.7 L46.6,34.7 L46.6,30.2 C46.6,26.9 49.3,24.2 52.6,24.2 C55.9,24.2 58.6,26.9 58.6,30.2 L58.6,34.8 L61.3,34.8 C61.8,32 64.2,29.8 67.2,29.8 C70.3,30 73,32.7 73,36 Z" id="Shape" class="fill-neutral" fill-rule="nonzero"></path>
                <path d="M73,40.6 L73,75.7 C73,84.4 65.9,91.5 57.2,91.5 L31,91.5 C28.4,91.5 25.8,90.6 23.8,88.9 C17.6,83.7 4.3,72.2 1.9,68.5 C1.9,68.5 1.9,68.4 1.9,68.4 C1.2,67.3 0.7,66.1 0.7,64.7 L0.7,45.6 C7.8,45.6 13.6,51.4 13.6,58.5 L13.6,68.1 L15.9,68.1 L15.9,11.8 C15.9,8.2 18.8,5.3 22.4,5.3 C26,5.3 28.9,8.2 28.9,11.8 L28.9,39.2 L31.1,39.2 L31.1,30 C31.1,26.4 34,23.5 37.6,23.5 C41.2,23.5 44.1,26.4 44.1,30 L44.1,39.3 L46.6,39.3 L46.6,34.7 C46.7,31.4 49.3,28.8 52.6,28.8 C55.9,28.8 58.6,31.5 58.6,34.8 C58.6,34.8 58.6,34.8 58.6,34.8 L58.6,39.4 L61.3,39.4 C61.8,36.6 64.2,34.4 67.2,34.4 C70.3,34.6 73,37.3 73,40.6 Z" id="Shape" class="fill-primary-100" fill-rule="nonzero"></path>
                <path d="M73,36.8 C73,33.5 70.3,30.8 67,30.8 C64,30.8 61.6,33 61.1,35.8 L58.4,35.8 L58.4,31.2 C58.4,27.9 55.7,25.2 52.4,25.2 C49.1,25.2 46.4,27.9 46.4,31.2 L46.4,35.7 L43.9,35.7 L43.9,26.4 C43.9,22.8 41,19.9 37.4,19.9 C33.8,19.9 30.9,22.8 30.9,26.4 L30.9,35.6 L28.7,35.6 L28.7,8.2 C28.7,4.6 25.8,1.7 22.2,1.7 C18.6,1.7 15.7,4.6 15.7,8.2 L15.7,47.7 L15.7,50.9 L15.7,64.5 L13.4,64.5 L13.4,54.9 C13.4,47.8 7.6,42 0.5,42 L0.5,65.7 C0.5,67.1 0.9,68.3 1.7,69.4 C1.7,69.4 1.7,69.5 1.7,69.5 C4.1,73.3 17.5,84.7 23.6,89.9 C25.6,91.6 28.2,92.5 30.8,92.5 L57.1,92.5 C65.8,92.5 72.9,85.4 72.9,76.7 L72.9,36.8 L73,36.8 Z" id="Shape" class="stroke-primary" stroke-width="3" stroke-linecap="round" stroke-linejoin="round"></path>
            </g>
        </g>
    </g>
</svg>
